X: 221
T: The Bridge of Perth
R: reel
M: C|
L: 1/8
Z: 2011 John Chambers <jc:trillian.mit.edu>
B: Abraham Mackintosh "A Collection of Strathspeys, Reels, Jigs &c.", Newcastle, after 1797, p.22
F: http://imslp.info/files/imglnks/usimg/a/a8/IMSLP80796-PMLP164326-Abraham_Mackintosh_coll.pdf
K: A
V: 1
e |\
A/B/c/d/ ed cAfA | cAec ae{d}c2 | A/B/c/d/ ed ceAc | Bd=GB gd{=c}B2 :|
Aaea caea | caef eA{d}c2 | Aaea caea | =gbeg BG{=c}B2 |
Aaea caea | caef eA{d}c2 | Aaea caea | B=gdg BGGB |]
V: 2 clef=bass middle=d
z |\
a2a2 a2[a2d'2] | a2[a2c'2] [a2c'2]a2 | a2a2 a2a2 | =g2g2 [g2b2]g2 :|
[a2c'2][a2c'2] a2[a2c'2] | a2a2 [a2c'2]a2 | [a2c'2][a2c'2] a2[a2c'2] | =g2g2 g2g2 |
[a2c'2][a2c'2] a2[a2c'2] | a2a2 [a2c'2]a2 | a2a2 [a2c'2]a2 | =g2g2 g2g2 |]

%%sep 2 1 500

